client/resources/iconsets/breeze/src/svg/16x16/icon_contact_room.svg

<svg xmlns="http://www.w3.org/2000/svg" width="16" height="16"><path d="M3 1v14h10V1H3zm7 2h1v10H5l5-3V3zM7 5h2v1H7V5z" fill="#6d6d70"/></svg>

<svg xmlns="http://www.w3.org/2000/svg" width="16" height="16" viewBox="0 0 16 16">
 <path style="fill:#6d6d70"
       d="M 3 1 L 3 15 L 13 15 L 13 1 L 3 1 z M 10 3 L 11 3 L 11 13 L 5 13 L 10 10 L 10 3 z M 7 5 L 9 5 L 9 6 L 7 6 L 7 5 z "
       />
</svg>
